;FLAVOR:Marlin
;TIME:10476
;Filament used: 10.7721m, 0m, 0m
;Layer height: 0.2
;MINX:223.515
;MINY:155.851
;MINZ:0.36
;MAXX:274.086
;MAXY:344.149
;MAXZ:30.965

;POSTPROCESSED
;Generated with Cura_SteamEngine 5.3.1
T0
M140 S150
M105
M190 S150
M104 S300
M105
M109 S300
M82 ;absolute extrusion mode
G28 ;Home
G1 Z15.0 F6000 ;Move the platform down 15mm
;Prime the extruder
G92 E0
G1 F200 E3
G92 E0
M83 ;relative extrusion mode
G1 F2400 E-4
;LAYER_COUNT:148

;LAYER:-3
M107
M204 S1300
G0 F15000 X229.609 Y162.306 Z0.36
M204 S700
;TYPE:SU-INTERFACE
G1 F2400 E3.98337
G1 F1800 X228.998 Y163.289 E0.13858
G1 X228.539 Y164.182 E0.12022
G1 X228.086 Y165.228 E0.13649
G1 X227.721 Y166.319 E0.13775
G1 X227.457 Y167.351 E0.12755
G1 X227.285 Y168.275 E0.11254
G1 X227.161 Y169.387 E0.13397
G1 X227.121 Y170.509 E0.13443
G1 X227.118 Y176.582 E0.72716
G1 X227.009 Y177.347 E0.09252
G1 X226.825 Y178.025 E0.08412
G1 X226.549 Y178.675 E0.08455
G1 X226.222 Y179.244 E0.07858
G1 X226.089 Y179.444 E0.02876
G1 X225.621 Y180.208 E0.10728
G1 X225.118 Y181.169 E0.12988
G1 X224.669 Y182.205 E0.1352
G1 X224.302 Y183.289 E0.13703
G1 X224.034 Y184.33 E0.12871
G1 X223.861 Y185.254 E0.11256
G1 X223.745 Y186.257 E0.1209
G1 X223.69 Y186.826 E0.06845
G1 X223.563 Y187.915 E0.13128
G1 X223.516 Y189.063 E0.13757
G1 X223.515 Y191.779 E0.3252
G1 X223.551 Y192.826 E0.12544
G1 X223.676 Y193.935 E0.13363
G1 X223.854 Y194.935 E0.12162
G1 X224.119 Y195.967 E0.12758
G1 X224.492 Y197.056 E0.13783
G1 X224.856 Y197.925 E0.11281
G1 X225.263 Y198.798 E0.11533
G1 X225.861 Y199.962 E0.15669
G1 X226.126 Y200.77 E0.10182
G1 X226.249 Y201.411 E0.07815
G1 X226.293 Y202.083 E0.08064
G1 X226.31 Y298.558 E11.55158
G1 X226.183 Y299.354 E0.09652
G1 X225.99 Y300.017 E0.08268
G1 X225.725 Y300.63 E0.07996
G1 X225.566 Y300.94 E0.04172
G1 X225.113 Y301.995 E0.13747
G1 X224.742 Y302.978 E0.1258
G1 X224.323 Y304.272 E0.16286
G1 X224.072 Y305.36 E0.1337
G1 X223.968 Y305.891 E0.06479
G1 X223.852 Y306.564 E0.08177
G1 X223.74 Y307.577 E0.12203
G1 X223.693 Y308.725 E0.13757
G1 X223.694 Y312.571 E0.46051
G1 X223.738 Y313.678 E0.13265
G1 X223.874 Y314.811 E0.13664
G1 X224.059 Y315.774 E0.11741
G1 X224.338 Y316.828 E0.13055
G1 X224.712 Y317.88 E0.13369
G1 X225.103 Y318.788 E0.11837
G1 X225.596 Y319.735 E0.12784
G1 X226.455 Y321.121 E0.19524
G1 X226.731 Y321.704 E0.07723
G1 X226.951 Y322.377 E0.08478
G1 X227.075 Y323.021 E0.07853
G1 X227.118 Y323.681 E0.07919
G1 X227.122 Y329.899 E0.74452
G1 X227.21 Y331.143 E0.14932
G1 X227.382 Y332.276 E0.13722
G1 X227.625 Y333.338 E0.13045
G1 X227.899 Y334.253 E0.11437
G1 X228.33 Y335.364 E0.14269
G1 X228.706 Y336.157 E0.10508
G1 X229.284 Y337.199 E0.14267
G1 X229.899 Y338.109 E0.13151
G1 X230.531 Y338.928 E0.12387
G1 X231.276 Y339.747 E0.13257
G1 X231.948 Y340.395 E0.11178
G1 X232.806 Y341.11 E0.13373
G1 X233.755 Y341.782 E0.13923
G1 X234.51 Y342.241 E0.1058
G1 X235.51 Y342.763 E0.13507
G1 X236.508 Y343.187 E0.12983
G1 X237.522 Y343.531 E0.12821
G1 X238.626 Y343.814 E0.13646
G1 X239.556 Y343.987 E0.11327
G1 X240.583 Y344.102 E0.12374
G1 X241.713 Y344.149 E0.13542
G1 X247.556 Y344.149 E0.69962
G1 X248.337 Y344.096 E0.09373
G1 X249.117 Y344.096 E0.09339
G1 X249.35 Y344.113 E0.02797
G1 X250.324 Y344.149 E0.1167
G1 X253.294 Y344.149 E0.35562
G1 X254.54 Y344.061 E0.14956
G1 X255.674 Y343.889 E0.13733
G1 X256.655 Y343.669 E0.12038
G1 X257.65 Y343.372 E0.12433
G1 X258.762 Y342.941 E0.1428
G1 X259.895 Y342.408 E0.14992
G1 X260.539 Y342.185 E0.0816
G1 X261.174 Y342.049 E0.07776
G1 X262.135 Y341.906 E0.11633
G1 X263.194 Y341.669 E0.12994
G1 X264.144 Y341.385 E0.11872
G1 X265.3 Y340.941 E0.14827
G1 X266.096 Y340.564 E0.10546
G1 X267.139 Y339.984 E0.1429
G1 X268.056 Y339.364 E0.13254
G1 X268.863 Y338.736 E0.12244
G1 X269.685 Y337.992 E0.13275
G1 X270.392 Y337.258 E0.12203
G1 X271.098 Y336.393 E0.13369
G1 X271.719 Y335.514 E0.12886
G1 X272.179 Y334.759 E0.10586
G1 X272.699 Y333.759 E0.13496
G1 X273.125 Y332.757 E0.13037
G1 X273.489 Y331.666 E0.13771
G1 X273.75 Y330.645 E0.12618
G1 X273.923 Y329.715 E0.11327
G1 X274.038 Y328.687 E0.12386
G1 X274.086 Y327.539 E0.13758
G1 X274.084 Y172.101 E18.6116
G1 X273.996 Y170.852 E0.14992
G1 X273.824 Y169.72 E0.1371
G1 X273.58 Y168.659 E0.13036
G1 X273.307 Y167.747 E0.11399
G1 X272.876 Y166.636 E0.14269
G1 X272.499 Y165.839 E0.10557
G1 X271.919 Y164.796 E0.1429
G1 X271.3 Y163.882 E0.13218
G1 X270.668 Y163.071 E0.12311
G1 X269.929 Y162.252 E0.13208
G1 X269.258 Y161.605 E0.11161
G1 X268.396 Y160.886 E0.1344
G1 X267.449 Y160.217 E0.13883
G1 X266.696 Y159.759 E0.10553
G1 X265.695 Y159.237 E0.13517
G1 X264.697 Y158.813 E0.12983
G1 X263.684 Y158.469 E0.1281
G1 X262.58 Y158.186 E0.13646
G1 X261.65 Y158.013 E0.11327
G1 X261.318 Y157.975 E0.04001
G1 X260.778 Y157.881 E0.06563
G1 X260.154 Y157.697 E0.0779
G1 X259.503 Y157.417 E0.08485
G1 X259.045 Y157.19 E0.06121
G1 X258.159 Y156.813 E0.11529
G1 X257.145 Y156.469 E0.12821
G1 X256.041 Y156.186 E0.13646
G1 X255.111 Y156.013 E0.11327
G1 X254.084 Y155.898 E0.12374
G1 X252.954 Y155.851 E0.13542
G1 X249.989 Y155.851 E0.35502
G1 X249.215 Y155.903 E0.09288
G1 X248.431 Y155.904 E0.09387
G1 X248.197 Y155.887 E0.02809
G1 X247.226 Y155.852 E0.11634
G1 X241.782 Y155.851 E0.65185
G1 X241.138 Y155.864 E0.07713
G1 X240.138 Y155.937 E0.12006
G1 X239.008 Y156.108 E0.13684
G1 X237.944 Y156.352 E0.13071
G1 X237.07 Y156.613 E0.10922
G1 X236.01 Y157.014 E0.1357
G1 X235.053 Y157.463 E0.12657
G1 X234.2 Y157.94 E0.11702
G1 X233.284 Y158.54 E0.13111
G1 X232.459 Y159.171 E0.12436
G1 X231.589 Y159.939 E0.13895
G1 X230.893 Y160.658 E0.11982
G1 X230.165 Y161.531 E0.13611
G1 X229.609 Y162.306 E0.11421
M204 S1300
G0 F15000 X228.546 Y165.17
M204 S700
G1 F1800 X236.436 Y157.28 E1.33604
M204 S1300
G0 F15000 X239.549 Y156.43
M204 S700
G1 F1800 X227.688 Y168.291 E2.00846
M204 S1300
G0 F15000 X227.52 Y170.722
M204 S700
G1 F1800 X241.991 Y156.25 E2.4505
M204 S1300
G0 F15000 X244.254 Y156.25
M204 S700
G1 F1800 X227.518 Y172.986 E2.83396
M204 S1300
G0 F15000 X227.517 Y175.25
M204 S700
G1 F1800 X246.516 Y156.251 E3.21716
M204 S1300
G0 F15000 X248.727 Y156.303
M204 S700
G1 F1800 X227.324 Y177.706 E3.62423
M204 S1300
G0 F15000 X225.117 Y182.176
M204 S700
G1 F1800 X251.042 Y156.25 E4.39004
M204 S1300
G0 F15000 X253.291 Y156.264
M204 S700
G1 F1800 X224.259 Y185.296 E4.91607
M204 S1300
G0 F15000 X223.973 Y187.845
M204 S700
G1 F1800 X255.353 Y156.465 E5.31367
M204 S1300
G0 F15000 X257.178 Y156.902
M204 S700
G1 F1800 X223.915 Y190.166 E5.63261
M204 S1300
G0 F15000 X223.936 Y192.407
M204 S700
G1 F1800 X258.816 Y157.527 E5.90633
M204 S1300
G0 F15000 X260.416 Y158.19
M204 S700
G1 F1800 X224.171 Y194.435 E6.13747
M204 S1300
G0 F15000 X224.634 Y196.235
M204 S700
G1 F1800 X262.324 Y158.545 E6.38216
M204 S1300
G0 F15000 X264.1 Y159.032
M204 S700
G1 F1800 X225.268 Y197.864 E6.57554
M204 S1300
G0 F15000 X226.013 Y199.381
M204 S700
G1 F1800 X265.703 Y159.692 E6.72074
M204 S1300
G0 F15000 X267.152 Y160.505
M204 S700
G1 F1800 X226.589 Y201.068 E6.86865
M204 S1300
G0 F15000 X226.692 Y203.228
M204 S700
G1 F1800 X268.46 Y161.46 E7.0727
M204 S1300
G0 F15000 X269.645 Y162.537
M204 S700
G1 F1800 X226.692 Y205.49 E7.27336
M204 S1300
G0 F15000 X226.693 Y207.752
M204 S700
G1 F1800 X270.691 Y163.754 E7.45031
M204 S1300
G0 F15000 X271.621 Y165.087
M204 S700
G1 F1800 X226.694 Y210.014 E7.60762
M204 S1300
G0 F15000 X226.694 Y212.277
M204 S700
G1 F1800 X272.401 Y166.57 E7.7397
M204 S1300
G0 F15000 X273.026 Y168.207
M204 S700
G1 F1800 X226.694 Y214.539 E7.84553
M204 S1300
G0 F15000 X226.694 Y216.802
M204 S700
G1 F1800 X273.465 Y170.031 E7.91987
M204 S1300
G0 F15000 X273.68 Y172.079
M204 S700
G1 F1800 X226.695 Y219.064 E7.95611
M204 S1300
G0 F15000 X226.696 Y221.326
M204 S700
G1 F1800 X273.683 Y174.339 E7.95645
M204 S1300
G0 F15000 X273.683 Y176.602
M204 S700
G1 F1800 X226.696 Y223.589 E7.95645
M204 S1300
G0 F15000 X226.697 Y225.851
M204 S700
G1 F1800 X273.683 Y178.864 E7.95636
M204 S1300
G0 F15000 X273.683 Y181.127
M204 S700
G1 F1800 X226.697 Y228.113 E7.95628
M204 S1300
G0 F15000 X226.697 Y230.376
M204 S700
G1 F1800 X273.683 Y183.39 E7.95628
M204 S1300
G0 F15000 X273.683 Y185.653
M204 S700
G1 F1800 X226.698 Y232.638 E7.95611
M204 S1300
G0 F15000 X226.698 Y234.9
M204 S700
G1 F1800 X273.683 Y187.915 E7.95611
M204 S1300
G0 F15000 X273.683 Y190.178
M204 S700
G1 F1800 X226.699 Y237.162 E7.95594
M204 S1300
G0 F15000 X226.699 Y239.424
M204 S700
G1 F1800 X273.683 Y192.441 E7.95586
M204 S1300
G0 F15000 X273.683 Y194.703
M204 S700
G1 F1800 X226.699 Y241.687 E7.95594
M204 S1300
G0 F15000 X226.7 Y243.949
M204 S700
G1 F1800 X273.683 Y196.966 E7.95577
M204 S1300
G0 F15000 X273.683 Y199.229
M204 S700
G1 F1800 X226.7 Y246.212 E7.95577
M204 S1300
G0 F15000 X226.701 Y248.474
M204 S700
G1 F1800 X273.683 Y201.492 E7.9556
M204 S1300
G0 F15000 X273.683 Y203.754
M204 S700
G1 F1800 X226.701 Y250.736 E7.9556
M204 S1300
G0 F15000 X226.701 Y252.999
M204 S700
G1 F1800 X273.683 Y206.017 E7.9556
M204 S1300
G0 F15000 X273.683 Y208.28
M204 S700
G1 F1800 X226.702 Y255.261 E7.95543
M204 S1300
G0 F15000 X226.702 Y257.524
M204 S700
G1 F1800 X273.683 Y210.543 E7.95543
M204 S1300
G0 F15000 X273.683 Y212.805
M204 S700
G1 F1800 X226.703 Y259.786 E7.95535
M204 S1300
G0 F15000 X226.704 Y262.048
M204 S700
G1 F1800 X273.683 Y215.068 E7.95518
M204 S1300
G0 F15000 X273.683 Y217.331
M204 S700
G1 F1800 X226.704 Y264.31 E7.95509
M204 S1300
G0 F15000 X226.704 Y266.572
M204 S700
G1 F1800 X273.683 Y219.594 E7.95501
M204 S1300
G0 F15000 X273.683 Y221.856
M204 S700
G1 F1800 X226.704 Y268.835 E7.95509
M204 S1300
G0 F15000 X226.705 Y271.097
M204 S700
G1 F1800 X273.684 Y224.118 E7.95509
M204 S1300
G0 F15000 X273.684 Y226.381
M204 S700
G1 F1800 X226.706 Y273.359 E7.95492
M204 S1300
G0 F15000 X226.706 Y275.622
M204 S700
G1 F1800 X273.684 Y228.644 E7.95492
M204 S1300
G0 F15000 X273.684 Y230.907
M204 S700
G1 F1800 X226.706 Y277.884 E7.95484
M204 S1300
G0 F15000 X226.707 Y280.146
M204 S700
G1 F1800 X273.684 Y233.169 E7.95475
M204 S1300
G0 F15000 X273.684 Y235.432
M204 S700
G1 F1800 X226.707 Y282.409 E7.95475
M204 S1300
G0 F15000 X226.708 Y284.671
M204 S700
G1 F1800 X273.684 Y237.695 E7.95459
M204 S1300
G0 F15000 X273.684 Y239.958
M204 S700
G1 F1800 X226.708 Y286.934 E7.95459
M204 S1300
G0 F15000 X226.709 Y289.196
M204 S700
G1 F1800 X273.684 Y242.22 E7.9545
M204 S1300
G0 F15000 X273.684 Y244.483
M204 S700
G1 F1800 X226.709 Y291.458 E7.95442
M204 S1300
G0 F15000 X226.709 Y293.72
M204 S700
G1 F1800 X273.684 Y246.746 E7.95433
M204 S1300
G0 F15000 X273.684 Y249.009
M204 S700
G1 F1800 X226.71 Y295.982 E7.95416
M204 S1300
G0 F15000 X226.71 Y298.245
M204 S700
G1 F1800 X273.684 Y251.271 E7.95425
M204 S1300
G0 F15000 X273.684 Y253.534
M204 S700
G1 F1800 X225.791 Y301.426 E8.10978
M204 S1300
G0 F15000 X224.59 Y304.891
M204 S700
G1 F1800 X273.684 Y255.797 E8.31323
M204 S1300
G0 F15000 X273.684 Y258.06
M204 S700
G1 F1800 X224.14 Y307.604 E8.38943
M204 S1300
G0 F15000 X224.093 Y309.913
M204 S700
G1 F1800 X273.684 Y260.322 E8.39739
M204 S1300
G0 F15000 X273.684 Y262.585
M204 S700
G1 F1800 X224.093 Y312.176 E8.39739
M204 S1300
G0 F15000 X224.217 Y314.315
M204 S700
G1 F1800 X273.684 Y264.848 E8.37639
M204 S1300
G0 F15000 X273.684 Y267.111
M204 S700
G1 F1800 X224.587 Y316.207 E8.31366
M204 S1300
G0 F15000 X225.157 Y317.9
M204 S700
G1 F1800 X273.684 Y269.373 E8.21722
M204 S1300
G0 F15000 X273.684 Y271.636
M204 S700
G1 F1800 X225.889 Y319.431 E8.09327
M204 S1300
G0 F15000 X226.749 Y320.834
M204 S700
G1 F1800 X273.684 Y273.899 E7.94764
M204 S1300
G0 F15000 X273.684 Y276.161
M204 S700
G1 F1800 X227.376 Y322.469 E7.84147
M204 S1300
G0 F15000 X227.518 Y324.59
M204 S700
G1 F1800 X273.684 Y278.424 E7.81743
M204 S1300
G0 F15000 X273.684 Y280.686
M204 S700
G1 F1800 X227.52 Y326.85 E7.81709
M204 S1300
G0 F15000 X227.522 Y329.112
M204 S700
G1 F1800 X273.684 Y282.949 E7.81683
M204 S1300
G0 F15000 X273.684 Y285.212
M204 S700
G1 F1800 X227.633 Y331.263 E7.79795
M204 S1300
G0 F15000 X227.995 Y333.163
M204 S700
G1 F1800 X273.684 Y287.474 E7.73665
M204 S1300
G0 F15000 X273.684 Y289.737
M204 S700
G1 F1800 X228.564 Y334.858 E7.64039
M204 S1300
G0 F15000 X229.294 Y336.391
M204 S700
G1 F1800 X273.684 Y292 E7.51677
M204 S1300
G0 F15000 X273.684 Y294.263
M204 S700
G1 F1800 X230.163 Y337.784 E7.36954
M204 S1300
G0 F15000 X231.173 Y339.037
M204 S700
G1 F1800 X273.684 Y296.525 E7.1986
M204 S1300
G0 F15000 X273.684 Y298.788
M204 S700
G1 F1800 X232.302 Y340.17 E7.00734
M204 S1300
G0 F15000 X233.573 Y341.162
M204 S700
G1 F1800 X273.684 Y301.051 E6.79211
M204 S1300
G0 F15000 X273.684 Y303.314
M204 S700
G1 F1800 X234.969 Y342.029 E6.55573
M204 S1300
G0 F15000 X236.509 Y342.752
M204 S700
G1 F1800 X273.684 Y305.576 E6.29504
M204 S1300
G0 F15000 X273.684 Y307.839
M204 S700
G1 F1800 X238.226 Y343.298 E6.00429
M204 S1300
G0 F15000 X240.138 Y343.648
M204 S700
G1 F1800 X273.684 Y310.102 E5.68044
M204 S1300
G0 F15000 X273.684 Y312.365
M204 S700
G1 F1800 X242.301 Y343.748 E5.31418
M204 S1300
G0 F15000 X244.564 Y343.748
M204 S700
G1 F1800 X273.684 Y314.627 E4.93106
M204 S1300
G0 F15000 X273.684 Y316.89
M204 S700
G1 F1800 X246.826 Y343.748 E4.54794
M204 S1300
G0 F15000 X249.142 Y343.696
M204 S700
G1 F1800 X273.684 Y319.153 E4.15585
M204 S1300
G0 F15000 X273.684 Y321.416
M204 S700
G1 F1800 X251.352 Y343.748 E3.78154
M204 S1300
G0 F15000 X253.64 Y343.723
M204 S700
G1 F1800 X273.684 Y323.678 E3.39419
M204 S1300
G0 F15000 X273.684 Y325.941
M204 S700
G1 F1800 X256.284 Y343.342 E2.94648
M204 S1300
G0 F15000 X259.909 Y341.979
M204 S700
G1 F1800 X273.655 Y328.233 E2.32765
M204 S1300
G0 F15000 X273.278 Y330.873
M204 S700
G1 F1800 X262.806 Y341.345 E1.77325
M204 S1300
G0 F15000 X266.575 Y339.839
M204 S700
G1 F1800 X271.792 Y334.622 E0.88341
M204 S1300
G1 F2400 E-4
G1 F60 Z0.76
G0 F15000 X230.214 Y337.864 Z0.76
;TIME_ELAPSED:205.733538

;LAYER:-2
G0 X230.214 Y337.864 Z1.06
M204 S700
;TYPE:SUPPORT
G1 F60 Z0.66
G1 F2400 E3.98337
G1 F1800 X230.815 Y338.644 E0.09825
G1 X231.567 Y339.472 E0.11161
G1 X232.184 Y340.066 E0.08546
G1 X232.976 Y340.732 E0.10325
G1 X233.891 Y341.395 E0.11275
G1 X233.951 Y341.431 E0.00698
G1 X229.787 Y337.268 E0.58751
G1 X229.093 Y336.043 E0.14048
G1 X228.653 Y335.107 E0.1032
G1 X228.42 Y334.486 E0.06618
G1 X236.796 Y342.862 E1.18194
G1 X237.64 Y343.149 E0.08895
G1 X238.795 Y343.446 E0.119
G1 X227.813 Y332.465 E1.54961
G1 X227.607 Y331.116 E0.13616
G1 X227.587 Y330.824 E0.0292
G1 X240.46 Y343.697 E1.81652
G1 X241.932 Y343.755 E0.14699
G1 X227.52 Y329.343 E2.03369
G1 X227.519 Y327.928 E0.14119
G1 X243.338 Y343.747 E2.23223
G1 X244.753 Y343.748 E0.14119
G1 X227.518 Y326.513 E2.43204
G1 X227.517 Y325.098 E0.14119
G1 X246.167 Y343.748 E2.63172
G1 X247.578 Y343.745 E0.14079
G1 X227.517 Y323.684 E2.83082
G1 X227.474 Y322.978 E0.07058
G1 X227.334 Y322.257 E0.07329
G1 X227.249 Y322.002 E0.02682
G1 X248.942 Y343.694 E3.06105
G1 X250.409 Y343.747 E0.14647
G1 X225.669 Y319.007 E3.49108
G1 X225.453 Y318.594 E0.04651
G1 X225.085 Y317.736 E0.09315
G1 X224.689 Y316.613 E0.11882
G1 X251.824 Y343.748 E3.82904
G1 X253.238 Y343.748 E0.14109
G1 X224.266 Y314.776 E4.08826
G1 X224.135 Y313.648 E0.11331
G1 X224.118 Y313.214 E0.04334
G1 X254.56 Y343.656 E4.2957
G1 X255.788 Y343.469 E0.12394
G1 X224.09 Y311.771 E4.47293
G1 X224.091 Y310.358 E0.14099
G1 X256.906 Y343.173 E4.63055
G1 X257.526 Y342.989 E0.06453
G1 X257.965 Y342.818 E0.04701
G1 X224.084 Y308.937 E4.78098
G1 X224.14 Y307.578 E0.13572
G1 X258.962 Y342.4 E4.91376
