;FLAVOR:Marlin
;TIME:8983
;Filament used: 5.95474m, 2.83652m, 0m
;Layer height: 0.2
;MINX:224.089
;MINY:155.851
;MINZ:0.36
;MAXX:274.086
;MAXY:344.149
;MAXZ:30.965
;POSTPROCESSED
;Generated with Cura_SteamEngine 5.3.1
T0
M140 S150
M105
M190 S150
M104 S300
M104 T1 S150
M105
M109 S300
M105
M109 T1 S150
M82 ;absolute extrusion mode
G28 ;Home
G1 Z15.0 F6000 ;Move the platform down 15mm
;Prime the extruder
G92 E0
G1 F200 E3
G92 E0
M83 ;relative extrusion mode
G1 F2400 E-4
;LAYER_COUNT:148
;LAYER:-3
M107
M204 S1300
G0 F15000 X230.321 Y163.239 Z0.36
M204 S700
;TYPE:SUPPORT-INTERFACE
G1 F2400 E3.98337
G1 F1800 X229.793 Y164.097 E0.12063
G1 X229.305 Y165.047 E0.12788
G1 X228.863 Y166.085 E0.13509
G1 X228.52 Y167.123 E0.1309
G1 X228.257 Y168.152 E0.12717
G1 X228.085 Y169.081 E0.11313
G1 X227.958 Y170.257 E0.14163
G1 X227.921 Y171.257 E0.11982
G1 X227.917 Y176.792 E0.66274
G1 X227.783 Y177.591 E0.09701
G1 X227.585 Y178.256 E0.08308
G1 X227.318 Y178.861 E0.07918
G1 X226.969 Y179.442 E0.08115
G1 X226.455 Y180.185 E0.10818
G1 X225.893 Y181.143 E0.13299
G1 X225.434 Y182.067 E0.12354
G1 X225.012 Y183.113 E0.13505
G1 X224.655 Y184.229 E0.1403
G1 X224.432 Y185.127 E0.11079
G1 X224.252 Y186.09 E0.1173
G1 X224.131 Y187.183 E0.13167
G1 X224.092 Y188.306 E0.13455
G1 X224.089 Y191.031 E0.32628
G1 X224.113 Y191.901 E0.10421
G1 X224.215 Y193.014 E0.13383
G1 X224.298 Y193.638 E0.07537
G1 X224.487 Y194.709 E0.13022
G1 X224.727 Y195.69 E0.12093
G1 X225.074 Y196.746 E0.13309
G1 X225.496 Y197.904 E0.14757
G1 X226.04 Y199.202 E0.16852
G1 X226.446 Y199.985 E0.10561
G1 X226.678 Y200.484 E0.06589
G1 X226.897 Y201.154 E0.0844
G1 X227.023 Y201.814 E0.08045
G1 X227.064 Y202.461 E0.07762
G1 X227.106 Y297.547 E11.38526
G1 X227.073 Y298.133 E0.07028
G1 X226.949 Y298.825 E0.08418
G1 X226.744 Y299.474 E0.08149
G1 X226.465 Y300.081 E0.07999
G1 X225.918 Y301.134 E0.14208
G1 X225.517 Y302.071 E0.12204
G1 X225.15 Y303.03 E0.12295
G1 X224.721 Y304.346 E0.16573
G1 X224.499 Y305.303 E0.11763
G1 X224.362 Y305.989 E0.08376
G1 X224.251 Y306.633 E0.07825
G1 X224.133 Y307.713 E0.13008
G1 X224.094 Y308.834 E0.13431
G1 X224.092 Y311.665 E0.33897
G1 X224.151 Y313.072 E0.16862
G1 X224.3 Y314.196 E0.13576
G1 X224.48 Y315.076 E0.10755
G1 X224.784 Y316.196 E0.13896
G1 X225.191 Y317.322 E0.14336
G1 X225.524 Y318.085 E0.09968
G1 X225.945 Y318.933 E0.11336
G1 X226.509 Y319.892 E0.13321
G1 X226.959 Y320.537 E0.09417
G1 X227.244 Y320.995 E0.06459
G1 X227.527 Y321.595 E0.07943
G1 X227.747 Y322.268 E0.08478
G1 X227.873 Y322.926 E0.08022
G1 X227.915 Y323.574 E0.07775
G1 X227.925 Y328.832 E0.62958
G1 X228.01 Y330.342 E0.18109
G1 X228.182 Y331.476 E0.13733
G1 X228.425 Y332.538 E0.13045
G1 X228.699 Y333.453 E0.11437
G1 X229.13 Y334.564 E0.14269
G1 X229.506 Y335.357 E0.10508
G1 X230.084 Y336.4 E0.14278
G1 X230.706 Y337.318 E0.13277
G1 X231.338 Y338.129 E0.12311
G1 X232.076 Y338.947 E0.13192
G1 X232.748 Y339.595 E0.11178
G1 X233.606 Y340.31 E0.13373
G1 X234.555 Y340.982 E0.13923
G1 X235.31 Y341.441 E0.1058
G1 X236.31 Y341.963 E0.13507
G1 X237.308 Y342.387 E0.12983
G1 X238.322 Y342.731 E0.12821
G1 X239.426 Y343.014 E0.13646
G1 X240.356 Y343.187 E0.11327
G1 X241.383 Y343.302 E0.12374
G1 X242.513 Y343.349 E0.13542
G1 X245.298 Y343.351 E0.33347
G1 X246.066 Y343.408 E0.09221
G1 X246.718 Y343.546 E0.0798
G1 X247.296 Y343.71 E0.07194
G1 X248.71 Y343.984 E0.17246
G1 X249.916 Y344.114 E0.14524
G1 X250.884 Y344.149 E0.11598
G1 X251.874 Y344.149 E0.11854
G1 X253.403 Y344.074 E0.1833
G1 X254.558 Y343.909 E0.1397
G1 X255.678 Y343.667 E0.1372
G1 X256.996 Y343.27 E0.16482
G1 X258.006 Y342.875 E0.12985
G1 X258.56 Y342.611 E0.07348
G1 X259.121 Y342.382 E0.07255
G1 X259.786 Y342.201 E0.08252
G1 X260.468 Y342.107 E0.08243
G1 X261.069 Y342.063 E0.07215
G1 X262.14 Y341.905 E0.12963
G1 X263.194 Y341.669 E0.12933
G1 X264.144 Y341.385 E0.11872
G1 X265.3 Y340.941 E0.14827
G1 X266.096 Y340.564 E0.10546
G1 X267.139 Y339.984 E0.1429
G1 X268.056 Y339.364 E0.13254
G1 X268.864 Y338.735 E0.12261
G1 X269.685 Y337.992 E0.13258
G1 X270.392 Y337.258 E0.12203
G1 X271.098 Y336.393 E0.13369
G1 X271.719 Y335.514 E0.12886
G1 X272.179 Y334.759 E0.10586
G1 X272.699 Y333.759 E0.13496
G1 X273.125 Y332.757 E0.13037
G1 X273.489 Y331.666 E0.13771
G1 X273.75 Y330.645 E0.12618
G1 X273.923 Y329.715 E0.11327
G1 X274.038 Y328.687 E0.12386
G1 X274.086 Y327.539 E0.13758
G1 X274.084 Y172.101 E18.6116
G1 X273.996 Y170.852 E0.14992
G1 X273.824 Y169.72 E0.1371
G1 X273.58 Y168.659 E0.13036
G1 X273.307 Y167.747 E0.11399
G1 X272.876 Y166.636 E0.14269
G1 X272.499 Y165.839 E0.10557
G1 X271.919 Y164.796 E0.1429
G1 X271.3 Y163.882 E0.13218
G1 X270.668 Y163.071 E0.12311
G1 X269.929 Y162.252 E0.13208
G1 X269.258 Y161.605 E0.11161
G1 X268.396 Y160.886 E0.1344
G1 X267.449 Y160.217 E0.13883
G1 X266.696 Y159.759 E0.10553
G1 X265.695 Y159.237 E0.13517
G1 X264.697 Y158.813 E0.12983
G1 X263.684 Y158.469 E0.1281
G1 X262.58 Y158.186 E0.13646
G1 X261.651 Y158.014 E0.11313
G1 X260.456 Y157.885 E0.14392
G1 X259.88 Y157.807 E0.0696
G1 X259.228 Y157.641 E0.08056
G1 X258.647 Y157.412 E0.07478
G1 X257.604 Y156.963 E0.13597
G1 X256.409 Y156.547 E0.15151
G1 X255.125 Y156.205 E0.1591
G1 X254.102 Y156.014 E0.12461
G1 X253.015 Y155.892 E0.13097
G1 X251.878 Y155.852 E0.13622
G1 X250.868 Y155.851 E0.12093
G1 X249.931 Y155.875 E0.11223
G1 X248.83 Y155.986 E0.1325
G1 X247.818 Y156.155 E0.12285
G1 X246.929 Y156.373 E0.1096
G1 X246.651 Y156.45 E0.03454
G1 X245.882 Y156.607 E0.09398
G1 X245.216 Y156.65 E0.07991
G1 X242.174 Y156.651 E0.36424
G1 X241.006 Y156.734 E0.1402
G1 X239.88 Y156.891 E0.13613
G1 X238.816 Y157.13 E0.13057
G1 X237.865 Y157.415 E0.11887
G1 X236.809 Y157.815 E0.13521
G1 X235.852 Y158.263 E0.12652
G1 X234.993 Y158.744 E0.11788
G1 X234.026 Y159.378 E0.13845
G1 X233.141 Y160.068 E0.13437
G1 X232.325 Y160.805 E0.13166
G1 X231.617 Y161.54 E0.1222
G1 X230.911 Y162.405 E0.13369
G1 X230.321 Y163.239 E0.12232
M204 S1300
G0 F15000 X232.03 Y161.687
M204 S700
G1 F1800 X232.824 Y160.892 E0.13454
M204 S1300
G0 F15000 X238.268 Y157.711
M204 S700
G1 F1800 X228.982 Y166.997 E1.57243
M204 S1300
G0 F15000 X228.405 Y169.837
M204 S700
G1 F1800 X241.115 Y157.126 E2.15231
M204 S1300
G0 F15000 X243.455 Y157.049
M204 S700
G1 F1800 X228.32 Y172.184 E2.56285
M204 S1300
G0 F15000 X228.319 Y174.448
M204 S700
G1 F1800 X245.753 Y157.014 E2.95215
M204 S1300
G0 F15000 X248.601 Y156.429
M204 S700
G1 F1800 X228.319 Y176.711 E3.43441
M204 S1300
G0 F15000 X226.647 Y180.645
M204 S700
G1 F1800 X251.041 Y156.251 E4.13071
M204 S1300
G0 F15000 X253.236 Y156.319
M204 S700
G1 F1800 X224.98 Y184.576 E4.78476
M204 S1300
G0 F15000 X224.526 Y187.292
M204 S700
G1 F1800 X255.184 Y156.634 E5.19141
M204 S1300
G0 F15000 X256.93 Y157.151
M204 S700
G1 F1800 X224.49 Y189.591 E5.49316
M204 S1300
G0 F15000 X224.512 Y191.832
M204 S700
G1 F1800 X258.543 Y157.8 E5.76265
M204 S1300
G0 F15000 X260.335 Y158.271
M204 S700
G1 F1800 X224.743 Y193.863 E6.0269
M204 S1300
G0 F15000 X225.156 Y195.713
M204 S700
G1 F1800 X262.324 Y158.545 E6.29377
M204 S1300
G0 F15000 X264.1 Y159.032
M204 S700
G1 F1800 X225.736 Y197.395 E6.49621
M204 S1300
G0 F15000 X226.391 Y199.003
M204 S700
G1 F1800 X265.703 Y159.692 E6.65673
M204 S1300
G0 F15000 X267.152 Y160.505
M204 S700
G1 F1800 X227.117 Y200.54 E6.77925
M204 S1300
G0 F15000 X227.462 Y202.458
M204 S700
G1 F1800 X268.46 Y161.46 E6.94231
M204 S1300
G0 F15000 X269.645 Y162.537
M204 S700
G1 F1800 X227.464 Y204.719 E7.14272
M204 S1300
G0 F15000 X227.464 Y206.981
M204 S700
G1 F1800 X270.691 Y163.754 E7.31976
M204 S1300
G0 F15000 X271.621 Y165.087
M204 S700
G1 F1800 X227.466 Y209.242 E7.4769
M204 S1300
G0 F15000 X227.467 Y211.504
M204 S700
G1 F1800 X272.401 Y166.57 E7.60881
M204 S1300
G0 F15000 X273.026 Y168.207
M204 S700
G1 F1800 X227.468 Y213.766 E7.71456
M204 S1300
G0 F15000 X227.469 Y216.028
M204 S700
G1 F1800 X273.465 Y170.031 E7.78872
M204 S1300
G0 F15000 X273.68 Y172.079
M204 S700
G1 F1800 X227.47 Y218.289 E7.82488
M204 S1300
G0 F15000 X227.471 Y220.551
M204 S700
G1 F1800 X273.683 Y174.339 E7.82521
M204 S1300
G0 F15000 X273.683 Y176.602
M204 S700
G1 F1800 X227.472 Y222.812 E7.82496
M204 S1300
G0 F15000 X227.473 Y225.074
M204 S700
G1 F1800 X273.683 Y178.864 E7.82488
M204 S1300
G0 F15000 X273.683 Y181.127
M204 S700
G1 F1800 X227.474 Y227.336 E7.82471
M204 S1300
G0 F15000 X227.475 Y229.598
M204 S700
G1 F1800 X273.683 Y183.39 E7.82454
M204 S1300
G0 F15000 X273.683 Y185.653
M204 S700
G1 F1800 X227.476 Y231.859 E7.82428
M204 S1300
G0 F15000 X227.477 Y234.121
M204 S700
G1 F1800 X273.683 Y187.915 E7.8242
M204 S1300
G0 F15000 X273.683 Y190.178
M204 S700
G1 F1800 X227.479 Y236.382 E7.82386
M204 S1300
G0 F15000 X227.479 Y238.645
M204 S700
G1 F1800 X273.683 Y192.441 E7.82386
M204 S1300
G0 F15000 X273.683 Y194.703
M204 S700
G1 F1800 X227.481 Y240.906 E7.82361
M204 S1300
G0 F15000 X227.481 Y243.168
M204 S700
G1 F1800 X273.683 Y196.966 E7.82352
M204 S1300
G0 F15000 X273.683 Y199.229
M204 S700
G1 F1800 X227.483 Y245.429 E7.82318
M204 S1300
G0 F15000 X227.484 Y247.691
M204 S700
G1 F1800 X273.683 Y201.492 E7.82301
M204 S1300
G0 F15000 X273.683 Y203.754
M204 S700
G1 F1800 X227.485 Y249.953 E7.82293
M204 S1300
G0 F15000 X227.486 Y252.215
M204 S700
G1 F1800 X273.683 Y206.017 E7.82276
M204 S1300
G0 F15000 X273.683 Y208.28
M204 S700
G1 F1800 X227.487 Y254.476 E7.82251
M204 S1300
G0 F15000 X227.488 Y256.738
M204 S700
G1 F1800 X273.683 Y210.543 E7.82234
M204 S1300
G0 F15000 X273.683 Y212.805
M204 S700
G1 F1800 X227.489 Y258.999 E7.82217
M204 S1300
G0 F15000 X227.49 Y261.261
M204 S700
G1 F1800 X273.683 Y215.068 E7.822
M204 S1300
G0 F15000 X273.683 Y217.331
M204 S700
G1 F1800 X227.491 Y263.523 E7.82183
M204 S1300
G0 F15000 X227.492 Y265.785
M204 S700
G1 F1800 X273.683 Y219.594 E7.82166
M204 S1300
G0 F15000 X273.683 Y221.856
M204 S700
G1 F1800 X227.493 Y268.046 E7.82149
M204 S1300
G0 F15000 X227.494 Y270.308
M204 S700
G1 F1800 X273.684 Y224.118 E7.82149
M204 S1300
G0 F15000 X273.684 Y226.381
M204 S700
G1 F1800 X227.496 Y272.569 E7.82115
M204 S1300
G0 F15000 X227.496 Y274.831
M204 S700
G1 F1800 X273.684 Y228.644 E7.82107
M204 S1300
G0 F15000 X273.684 Y230.907
M204 S700
G1 F1800 X227.498 Y277.093 E7.82081
M204 S1300
G0 F15000 X227.498 Y279.355
M204 S700
G1 F1800 X273.684 Y233.169 E7.82081
M204 S1300
G0 F15000 X273.684 Y235.432
M204 S700
G1 F1800 X227.5 Y281.616 E7.82047
M204 S1300
G0 F15000 X227.501 Y283.878
M204 S700
G1 F1800 X273.684 Y237.695 E7.8203
M204 S1300
G0 F15000 X273.684 Y239.958
M204 S700
G1 F1800 X227.502 Y286.139 E7.82005
M204 S1300
G0 F15000 X227.503 Y288.401
M204 S700
G1 F1800 X273.684 Y242.22 E7.81997
M204 S1300
G0 F15000 X273.684 Y244.483
M204 S700
G1 F1800 X227.504 Y290.663 E7.8198
M204 S1300
G0 F15000 X227.505 Y292.925
M204 S700
G1 F1800 X273.684 Y246.746 E7.81963
M204 S1300
G0 F15000 X273.684 Y249.009
M204 S700
G1 F1800 X227.506 Y295.186 E7.81937
M204 S1300
G0 F15000 X227.507 Y297.448
M204 S700
G1 F1800 X273.684 Y251.271 E7.81929
M204 S1300
G0 F15000 X273.684 Y253.534
M204 S700
G1 F1800 X226.675 Y300.543 E7.96017
M204 S1300
G0 F15000 X225.144 Y304.336
M204 S700
G1 F1800 X273.684 Y255.797 E8.21934
M204 S1300
G0 F15000 X273.684 Y258.06
M204 S700
G1 F1800 X224.596 Y307.147 E8.31213
M204 S1300
G0 F15000 X224.493 Y309.513
M204 S700
G1 F1800 X273.684 Y260.322 E8.32966
M204 S1300
G0 F15000 X273.684 Y262.585
M204 S700
G1 F1800 X224.497 Y311.772 E8.32898
M204 S1300
G0 F15000 X224.66 Y313.871
M204 S700
G1 F1800 X273.684 Y264.848 E8.30129
M204 S1300
G0 F15000 X273.684 Y267.111
M204 S700
G1 F1800 X225.071 Y315.723 E8.2317
M204 S1300
G0 F15000 X225.661 Y317.396
M204 S700
G1 F1800 X273.684 Y269.373 E8.13188
M204 S1300
G0 F15000 X273.684 Y271.636
M204 S700
G1 F1800 X226.402 Y318.918 E8.0064
M204 S1300
G0 F15000 X227.281 Y320.301
M204 S700
G1 F1800 X273.684 Y273.899 E7.85747
M204 S1300
G0 F15000 X273.684 Y276.161
M204 S700
G1 F1800 X228.021 Y321.824 E7.73225
M204 S1300
G0 F15000 X228.315 Y323.793
M204 S700
G1 F1800 X273.684 Y278.424 E7.68247
M204 S1300
G0 F15000 X273.684 Y280.686
M204 S700
G1 F1800 X228.32 Y326.051 E7.68171
M204 S1300
G0 F15000 X228.324 Y328.309
M204 S700
G1 F1800 X273.684 Y282.949 E7.68094
M204 S1300
G0 F15000 X273.684 Y285.212
M204 S700
G1 F1800 X228.432 Y330.464 E7.66266
M204 S1300
G0 F15000 X228.795 Y332.364
M204 S700
G1 F1800 X273.684 Y287.474 E7.60127
M204 S1300
G0 F15000 X273.684 Y289.737
M204 S700
G1 F1800 X229.364 Y334.058 E7.50492
M204 S1300
G0 F15000 X230.093 Y335.591
M204 S700
G1 F1800 X273.684 Y292 E7.38139
M204 S1300
G0 F15000 X273.684 Y294.263
M204 S700
G1 F1800 X230.964 Y336.983 E7.2339
M204 S1300
G0 F15000 X231.974 Y338.236
M204 S700
G1 F1800 X273.684 Y296.525 E7.06296
M204 S1300
G0 F15000 X273.684 Y298.788
M204 S700
G1 F1800 X233.103 Y339.37 E6.87179
M204 S1300
G0 F15000 X234.373 Y340.363
M204 S700
G1 F1800 X273.684 Y301.051 E6.65673
M204 S1300
G0 F15000 X273.684 Y303.314
M204 S700
G1 F1800 X235.769 Y341.229 E6.42026
M204 S1300
G0 F15000 X237.309 Y341.952
M204 S700
G1 F1800 X273.684 Y305.576 E6.15957
M204 S1300
G0 F15000 X273.684 Y307.839
M204 S700
G1 F1800 X239.026 Y342.498 E5.86883
M204 S1300
G0 F15000 X240.938 Y342.849
M204 S700
G1 F1800 X273.684 Y310.102 E5.54506
M204 S1300
G0 F15000 X273.684 Y312.365
M204 S700
G1 F1800 X243.101 Y342.948 E5.17871
M204 S1300
G0 F15000 X245.358 Y342.954
M204 S700
G1 F1800 X273.684 Y314.627 E4.79661
M204 S1300
G0 F15000 X273.684 Y316.89
M204 S700
G1 F1800 X247.284 Y343.291 E4.47047
M204 S1300
G0 F15000 X249.203 Y343.634
M204 S700
G1 F1800 X273.684 Y319.153 E4.14544
M204 S1300
G0 F15000 X273.684 Y321.416
M204 S700
G1 F1800 X251.353 Y343.747 E3.78137
M204 S1300
G0 F15000 X253.743 Y343.62
M204 S700
G1 F1800 X273.684 Y323.678 E3.37675
M204 S1300
G0 F15000 X273.684 Y325.941
M204 S700
G1 F1800 X256.679 Y342.947 E2.87959
M204 S1300
G0 F15000 X260.141 Y341.747
M204 S700
G1 F1800 X273.655 Y328.233 E2.28837
M204 S1300
G0 F15000 X273.278 Y330.873
M204 S700
G1 F1800 X262.806 Y341.345 E1.77325
M204 S1300
G0 F15000 X266.575 Y339.839
M204 S700
G1 F1800 X271.792 Y334.622 E0.88341
M204 S1300
G1 F2400 E-4
G1 F60 Z0.76
G0 F15000 X234.104 Y340.17 Z0.76
;TIME_ELAPSED:202.021108
;LAYER:-2
G0 X234.104 Y340.17 Z1.06
M204 S700
;TYPE:SUPPORT
G1 F60 Z0.66
G1 F2400 E3.98337
G1 F1800 X231.064 Y337.13 E0.42898
M204 S1300
G0 F15000 X231.657 Y337.89
M204 S700
G1 F1800 X232.368 Y338.671 E0.10538
G1 X232.983 Y339.266 E0.08538
G1 X233.776 Y339.933 E0.10339
G1 X234.69 Y340.595 E0.11261
G1 X235.627 Y341.161 E0.10923
G1 X236.501 Y341.609 E0.098
G1 X237.285 Y341.937 E0.0848
G1 X229.332 Y333.984 E1.12225
G1 X229.058 Y333.254 E0.0778
G1 X228.762 Y332.253 E0.10416
G1 X228.689 Y331.927 E0.03333
G1 X239.355 Y342.593 E1.50509
G1 X240.362 Y342.781 E0.10221
G1 X241.035 Y342.858 E0.06759
G1 X228.401 Y330.224 E1.78279
G1 X228.322 Y328.731 E0.14918
G1 X242.539 Y342.948 E2.00617
G1 X243.953 Y342.948 E0.14109
G1 X228.318 Y327.313 E2.20627
G1 X228.317 Y325.897 E0.14129
G1 X245.373 Y342.954 E2.40686
G1 X246.118 Y343.009 E0.07454
G1 X247.037 Y343.204 E0.09374
G1 X228.315 Y324.482 E2.64188
G1 X228.314 Y323.574 E0.0906
G1 X228.28 Y323.032 E0.05419
G1 X248.847 Y343.6 E2.9023
G1 X249.931 Y343.713 E0.10875
G1 X250.391 Y343.729 E0.04593
G1 X227.707 Y321.045 E3.20096
G1 X227.587 Y320.794 E0.02776
G1 X227.286 Y320.31 E0.05687
G1 X226.849 Y319.683 E0.07626
G1 X226.291 Y318.729 E0.11028
G1 X225.888 Y317.92 E0.09018
G1 X225.803 Y317.727 E0.02104
G1 X251.824 Y343.748 E3.67184
G1 X253.174 Y343.684 E0.13485
G1 X225.01 Y315.52 E3.97424
